symbolic/22x22/actions/distribute-horizontal-baseline.svg

<svg xmlns="http://www.w3.org/2000/svg" width="22" height="22"><defs><style id="current-color-scheme" type="text/css"></style></defs><path style="fill:currentColor;color:#323a41" d="M1 2v12h2V2zm4 1v2h6s1 0 1 1v1H7c-3 0-3 3-3 3s0 3 3 3h7V6c0-3-3-3-3-3zm2 6h5v2H7s-1 0-1-1 1-1 1-1z" transform="translate(3 3)"/></svg>

<svg xmlns="http://www.w3.org/2000/svg" width="22" height="22" version="1.1">
 <defs>
  <style id="current-color-scheme" type="text/css">
   .ColorScheme-Text { color:#323a41; } .ColorScheme-Highlight { color:#4285f4; } .ColorScheme-NeutralText { color:#ff9800; } .ColorScheme-PositiveText { color:#4caf50; } .ColorScheme-NegativeText { color:#f44336; }
  </style>
 </defs>
 <g transform="translate(3,3)">
  <path style="fill:currentColor" class="ColorScheme-Text" d="M 1,2 V 14 H 3 V 2 Z M 5,3 V 5 H 11 C 11,5 12,5 12,6 V 7 H 7 C 4,7 4,10 4,10 4,10 4,13 7,13 H 14 V 6 C 14,3 11,3 11,3 Z M 7,9 H 12 V 11 H 7 C 7,11 6,11 6,10 6,9 7,9 7,9 Z"/>
 </g>
</svg>
